#TIMEBASE 480
#TITLE "MML Syntax test."
#COPYRIGHT "abechan"
#MARKER 'marker'
#VELOCITY REVERSE
#OCTAVE REVERSE

@SY'GeneralUser GS Live-Audigy v1.44'
@CH10
@BS0,120
@PC0
@CH 1
@BS 0,0
@PC 41

@VL100
@CS100
@RV100
@X100
@P70
@D-100
T124.0

G++16
G##16
G--16
A4..
C+%24
r16.
r%24
O4 < >
@NS-2
NS-2
L4 c&c8
Q15
@Q128
{ABC}5
@V127 V5 ( )
abc;
/:2 abc / def :/
[A++4BC]
